X:211
T:Variant till Skräddarpolskan
T:(SvL Hälsingland 211)
R:Polska
O:Delsbo, Hälsingland
B:Svenska Låtar Hälsingland
S:Carl Sved
S:Per Andersson
S:P. Söderblom
N:Jmf. SvL Häls. 197
M:3/4
L:1/8
K:F
vFF/G/ (A/B/A/G/) AF|AA/B/ (c/d/c/B/) cA|.c(d/e/) fe dc|[BG][BG] [BG]2 z2:|
|:va/c/a/c/ a/c/g/c/ g/c/g/c/|va/c/a/c/ a/c/g/c/ g/c/g/c/|a/c/a/c/ b/c/b/c/ a/c/a/c/|
[cg]2 [Af]2 z2|[Ac]3 [AF] [BG][BG]|[Ac]3 [AF] [BG][BG]|[AF][Ac] [Ac][BG] [BG][AF]|([GB][Ac]) [FA]2 z2:|

